X:19
T:Tom and Mary
M:6/8
L:1/8
B:Thompson's Compleat Collection of 200 Favourite Country Dances, vol. 1 (London, 1757)
Z:Transcribed and edited by Fynnian Titford-Mock, 2007
Z:abc's:AK/Fiddler's Companion
K:G
G2A B2c|dcB A2B|c2d e>dc|B>cd {e}d2B|cde cBA|Bcd BAG|ABc BcA|BG2 G2:|
|:d|g>ab g2d|ef/g/e d2B|cde gdc|"tr"B3 A2D|G2B d2B|e/f/ge d2G|E2c BcA|BG2 G2:|

